<?xml version="1.0" encoding="UTF-8"?>
<map version="1.10" tiledversion="1.10.2" orientation="orthogonal" renderorder="right-down" width="8" height="8" tilewidth="32" tileheight="32" infinite="0" nextlayerid="21" nextobjectid="8">
 <properties>
  <property name="pa_schema_version" type="int" value="1"/>
  <property name="map_id" value="pokeaether_minimal_example"/>
  <property name="map_display_name" value="PokeAether Minimal Example"/>
  <property name="region_id" value="template"/>
  <property name="region_name" value="Template Region"/>
  <property name="location_id" value="template.minimal_example"/>
  <property name="location_name" value="Minimal Example"/>
  <property name="music_track_path" value="res://assets/music/overworld/kanto/routes/route1.ogg"/>
  <property name="default_spawn" value="Start"/>
  <property name="encounter_area_id" value="template_grass"/>
 </properties>
 <tileset firstgid="1" source="pokeaether_overworld_template.tsx"/>
 <layer id="1" name="Ground" width="8" height="8">
  <data encoding="csv">
1,1,1,1,1,1,1,1,
1,1,1,1,1,1,1,1,
1,1,1,1,1,1,1,1,
1,1,1,1,1,1,1,1,
1,1,1,1,1,1,1,1,
1,1,1,1,1,1,1,1,
1,1,1,1,1,1,1,1,
1,1,1,1,1,1,1,1
  </data>
 </layer>
 <layer id="2" name="GroundDetail" width="8" height="8">
  <data encoding="csv">
0,0,0,0,0,0,0,0,
0,3,0,0,0,0,3,0,
0,0,0,0,0,0,0,0,
0,0,4,0,0,0,0,0,
0,0,0,0,0,0,0,0,
0,3,0,0,0,0,3,0,
0,0,0,0,0,0,0,0,
0,0,0,0,0,0,0,0
  </data>
 </layer>
 <layer id="3" name="Path" width="8" height="8">
  <data encoding="csv">
0,0,0,2,2,0,0,0,
0,0,0,2,2,0,0,0,
0,0,0,2,2,0,0,0,
0,0,0,2,2,0,0,0,
0,0,0,2,2,0,0,0,
0,0,0,2,2,0,0,0,
0,0,0,2,2,0,0,0,
0,0,0,2,2,0,0,0
  </data>
 </layer>
 <layer id="4" name="Water" width="8" height="8">
  <data encoding="csv">
5,5,0,0,0,0,5,5,
5,5,0,0,0,0,5,5,
0,0,0,0,0,0,0,0,
0,0,0,0,0,0,0,0,
0,0,0,0,0,0,0,0,
0,0,0,0,0,0,0,0,
5,5,0,0,0,0,5,5,
5,5,0,0,0,0,5,5
  </data>
 </layer>
 <layer id="5" name="Objects" width="8" height="8">
  <data encoding="csv">
0,0,0,0,0,0,0,0,
0,0,0,0,0,0,0,0,
0,0,0,0,0,0,0,0,
0,0,4,0,0,0,0,0,
0,0,0,0,0,0,0,0,
0,0,0,0,0,0,0,0,
0,0,0,0,0,0,0,0,
0,0,0,0,0,0,0,0
  </data>
 </layer>
 <layer id="6" name="Overhead" width="8" height="8">
  <data encoding="csv">
0,0,0,0,0,0,0,0,
0,0,0,0,0,0,0,0,
0,0,0,0,0,0,0,0,
0,0,0,0,0,0,0,0,
0,0,0,0,0,0,0,0,
0,0,0,0,0,0,0,0,
0,0,0,0,0,0,0,0,
0,0,0,0,0,0,0,0
  </data>
 </layer>
 <layer id="7" name="Collision" width="8" height="8" visible="0">
  <data encoding="csv">
1,1,1,0,0,1,1,1,
1,0,0,0,0,0,0,1,
1,0,0,0,0,0,0,1,
1,0,1,0,0,0,0,1,
1,0,0,0,0,0,0,1,
1,0,0,0,0,0,0,1,
1,0,0,0,0,0,0,1,
1,1,1,0,0,1,1,1
  </data>
 </layer>
 <layer id="8" name="TallGrass" width="8" height="8">
  <data encoding="csv">
0,0,0,0,0,0,0,0,
0,0,0,0,0,0,0,0,
0,0,0,0,0,0,0,0,
0,0,0,0,0,0,0,0,
0,0,0,0,0,1,1,0,
0,0,0,0,0,1,1,0,
0,0,0,0,0,0,0,0,
0,0,0,0,0,0,0,0
  </data>
 </layer>
 <layer id="9" name="LedgeDown" width="8" height="8" visible="0">
  <data encoding="csv">
0,0,0,0,0,0,0,0,
0,0,0,0,0,0,0,0,
0,1,1,0,0,0,0,0,
0,0,0,0,0,0,0,0,
0,0,0,0,0,0,0,0,
0,0,0,0,0,0,0,0,
0,0,0,0,0,0,0,0,
0,0,0,0,0,0,0,0
  </data>
 </layer>
 <layer id="10" name="LedgeUp" width="8" height="8" visible="0">
  <data encoding="csv">
0,0,0,0,0,0,0,0,
0,0,0,0,0,0,0,0,
0,0,0,0,0,0,0,0,
0,0,0,0,0,0,0,0,
0,0,0,0,0,0,0,0,
0,0,0,0,0,0,0,0,
0,0,0,0,0,0,0,0,
0,0,0,0,0,0,0,0
  </data>
 </layer>
 <layer id="11" name="LedgeLeft" width="8" height="8" visible="0">
  <data encoding="csv">
0,0,0,0,0,0,0,0,
0,0,0,0,0,0,0,0,
0,0,0,0,0,0,0,0,
0,0,0,0,0,0,0,0,
0,0,0,0,0,0,0,0,
0,0,0,0,0,0,0,0,
0,0,0,0,0,0,0,0,
0,0,0,0,0,0,0,0
  </data>
 </layer>
 <layer id="12" name="LedgeRight" width="8" height="8" visible="0">
  <data encoding="csv">
0,0,0,0,0,0,0,0,
0,0,0,0,0,0,0,0,
0,0,0,0,0,0,0,0,
0,0,0,0,0,0,0,0,
0,0,0,0,0,0,0,0,
0,0,0,0,0,0,0,0,
0,0,0,0,0,0,0,0,
0,0,0,0,0,0,0,0
  </data>
 </layer>
 <objectgroup id="14" name="PA_Spawns">
  <object id="1" name="Start" x="96" y="192">
   <properties>
    <property name="spawn_id" value="Start"/>
    <property name="facing" value="up"/>
   </properties>
   <point/>
  </object>
 </objectgroup>
 <objectgroup id="15" name="PA_Warps">
  <object id="2" name="ToTemplateExit" x="96" y="224" width="64" height="32">
   <properties>
    <property name="warp_id" value="ToTemplateExit"/>
    <property name="target_map_id" value="template_neighbor"/>
    <property name="target_spawn_name" value="FromMinimalExample"/>
    <property name="enabled" type="bool" value="true"/>
   </properties>
  </object>
 </objectgroup>
 <objectgroup id="16" name="PA_NPCs">
  <object id="3" name="Guide" x="128" y="96">
   <properties>
    <property name="npc_id" value="guide"/>
    <property name="npc_definition_id" value="shared_guide"/>
    <property name="npc_kind" value="dialogue"/>
    <property name="display_name" value="Guide"/>
    <property name="dialogue_id" value="template.guide"/>
    <property name="facing" value="left"/>
    <property name="sight_range_tiles" type="int" value="3"/>
   </properties>
   <point/>
  </object>
 </objectgroup>
 <objectgroup id="17" name="PA_Interactables">
  <object id="7" name="TrainerTipsSign" x="64" y="96">
   <properties>
    <property name="interactable_id" value="trainer_tips_sign"/>
    <property name="interactable_kind" value="road_sign"/>
    <property name="display_name" value="Trainer Tips"/>
    <property name="dialogue" value="Trainer Tips!\nPress the interact button while facing signs to read them."/>
    <property name="blocks_movement" type="bool" value="true"/>
   </properties>
   <point/>
  </object>
 </objectgroup>
 <objectgroup id="18" name="PA_Items">
  <object id="4" name="HiddenPotion" x="32" y="160">
   <properties>
    <property name="item_spawn_id" value="hidden_potion_1"/>
    <property name="item_id" value="potion"/>
    <property name="quantity" type="int" value="1"/>
    <property name="flag_id" value="item.template.hidden_potion_1"/>
   </properties>
   <point/>
  </object>
 </objectgroup>
 <objectgroup id="19" name="PA_EncounterRegions">
  <object id="5" name="GrassPatchA" x="160" y="128" width="64" height="64">
   <properties>
    <property name="encounter_region_id" value="grass_patch_a"/>
    <property name="encounter_area_id" value="template_grass"/>
    <property name="encounter_type" value="grass"/>
    <property name="encounter_chance" type="float" value="0.1"/>
   </properties>
  </object>
 </objectgroup>
 <objectgroup id="20" name="PA_Triggers">
  <object id="6" name="IntroTrigger" x="96" y="32" width="64" height="32">
   <properties>
    <property name="trigger_id" value="intro_trigger"/>
    <property name="trigger_kind" value="story"/>
    <property name="event_id" value="template.intro"/>
    <property name="once" type="bool" value="true"/>
   </properties>
  </object>
 </objectgroup>
</map>
