<?xml version="1.0" encoding="UTF-8"?>
<map version="1.10" tiledversion="1.10.2" orientation="orthogonal" renderorder="right-down" width="8" height="8" tilewidth="32" tileheight="32" infinite="0" nextlayerid="21" nextobjectid="1">
 <properties>
  <property name="pa_schema_version" type="int" value="1"/>
  <property name="map_id" value="pokeaether_template_map"/>
  <property name="map_display_name" value="PokeAether Template Map"/>
  <property name="region_id" value="template"/>
  <property name="region_name" value="Template Region"/>
  <property name="location_id" value="template.map"/>
  <property name="location_name" value="Template Map"/>
  <property name="music_track_id" value=""/>
  <property name="default_spawn" value="Start"/>
  <property name="encounter_area_id" value=""/>
 </properties>
 <tileset firstgid="1" source="pokeaether_overworld_template.tsx"/>
 <layer id="1" name="Ground" width="8" height="8">
  <data encoding="csv">
1,1,1,1,1,1,1,1,
1,1,1,1,1,1,1,1,
1,1,1,1,1,1,1,1,
1,1,1,1,1,1,1,1,
1,1,1,1,1,1,1,1,
1,1,1,1,1,1,1,1,
1,1,1,1,1,1,1,1,
1,1,1,1,1,1,1,1
  </data>
 </layer>
 <layer id="2" name="GroundDetail" width="8" height="8">
  <data encoding="csv">
0,0,0,0,0,0,0,0,
0,0,0,0,0,0,0,0,
0,0,0,0,0,0,0,0,
0,0,0,0,0,0,0,0,
0,0,0,0,0,0,0,0,
0,0,0,0,0,0,0,0,
0,0,0,0,0,0,0,0,
0,0,0,0,0,0,0,0
  </data>
 </layer>
 <layer id="3" name="Path" width="8" height="8">
  <data encoding="csv">
0,0,0,0,0,0,0,0,
0,0,0,0,0,0,0,0,
0,0,0,0,0,0,0,0,
0,0,0,0,0,0,0,0,
0,0,0,0,0,0,0,0,
0,0,0,0,0,0,0,0,
0,0,0,0,0,0,0,0,
0,0,0,0,0,0,0,0
  </data>
 </layer>
 <layer id="4" name="Water" width="8" height="8">
  <data encoding="csv">
0,0,0,0,0,0,0,0,
0,0,0,0,0,0,0,0,
0,0,0,0,0,0,0,0,
0,0,0,0,0,0,0,0,
0,0,0,0,0,0,0,0,
0,0,0,0,0,0,0,0,
0,0,0,0,0,0,0,0,
0,0,0,0,0,0,0,0
  </data>
 </layer>
 <layer id="5" name="Objects" width="8" height="8">
  <data encoding="csv">
0,0,0,0,0,0,0,0,
0,0,0,0,0,0,0,0,
0,0,0,0,0,0,0,0,
0,0,0,0,0,0,0,0,
0,0,0,0,0,0,0,0,
0,0,0,0,0,0,0,0,
0,0,0,0,0,0,0,0,
0,0,0,0,0,0,0,0
  </data>
 </layer>
 <layer id="6" name="Overhead" width="8" height="8">
  <data encoding="csv">
0,0,0,0,0,0,0,0,
0,0,0,0,0,0,0,0,
0,0,0,0,0,0,0,0,
0,0,0,0,0,0,0,0,
0,0,0,0,0,0,0,0,
0,0,0,0,0,0,0,0,
0,0,0,0,0,0,0,0,
0,0,0,0,0,0,0,0
  </data>
 </layer>
 <layer id="7" name="Collision" width="8" height="8" visible="0">
  <data encoding="csv">
0,0,0,0,0,0,0,0,
0,0,0,0,0,0,0,0,
0,0,0,0,0,0,0,0,
0,0,0,0,0,0,0,0,
0,0,0,0,0,0,0,0,
0,0,0,0,0,0,0,0,
0,0,0,0,0,0,0,0,
0,0,0,0,0,0,0,0
  </data>
 </layer>
 <layer id="8" name="TallGrass" width="8" height="8">
  <data encoding="csv">
0,0,0,0,0,0,0,0,
0,0,0,0,0,0,0,0,
0,0,0,0,0,0,0,0,
0,0,0,0,0,0,0,0,
0,0,0,0,0,0,0,0,
0,0,0,0,0,0,0,0,
0,0,0,0,0,0,0,0,
0,0,0,0,0,0,0,0
  </data>
 </layer>
 <layer id="9" name="LedgeDown" width="8" height="8" visible="0">
  <data encoding="csv">
0,0,0,0,0,0,0,0,
0,0,0,0,0,0,0,0,
0,0,0,0,0,0,0,0,
0,0,0,0,0,0,0,0,
0,0,0,0,0,0,0,0,
0,0,0,0,0,0,0,0,
0,0,0,0,0,0,0,0,
0,0,0,0,0,0,0,0
  </data>
 </layer>
 <layer id="10" name="LedgeUp" width="8" height="8" visible="0">
  <data encoding="csv">
0,0,0,0,0,0,0,0,
0,0,0,0,0,0,0,0,
0,0,0,0,0,0,0,0,
0,0,0,0,0,0,0,0,
0,0,0,0,0,0,0,0,
0,0,0,0,0,0,0,0,
0,0,0,0,0,0,0,0,
0,0,0,0,0,0,0,0
  </data>
 </layer>
 <layer id="11" name="LedgeLeft" width="8" height="8" visible="0">
  <data encoding="csv">
0,0,0,0,0,0,0,0,
0,0,0,0,0,0,0,0,
0,0,0,0,0,0,0,0,
0,0,0,0,0,0,0,0,
0,0,0,0,0,0,0,0,
0,0,0,0,0,0,0,0,
0,0,0,0,0,0,0,0,
0,0,0,0,0,0,0,0
  </data>
 </layer>
 <layer id="12" name="LedgeRight" width="8" height="8" visible="0">
  <data encoding="csv">
0,0,0,0,0,0,0,0,
0,0,0,0,0,0,0,0,
0,0,0,0,0,0,0,0,
0,0,0,0,0,0,0,0,
0,0,0,0,0,0,0,0,
0,0,0,0,0,0,0,0,
0,0,0,0,0,0,0,0,
0,0,0,0,0,0,0,0
  </data>
 </layer>
 <objectgroup id="14" name="PA_Spawns"/>
 <objectgroup id="15" name="PA_Warps"/>
 <objectgroup id="16" name="PA_NPCs"/>
 <objectgroup id="17" name="PA_Interactables"/>
 <objectgroup id="18" name="PA_Items"/>
 <objectgroup id="19" name="PA_EncounterRegions"/>
 <objectgroup id="20" name="PA_Triggers"/>
</map>
